static/img/mobile/button-icon-only.svg

<svg fill="none" height="56" viewBox="0 0 56 56" width="56" xmlns="http://www.w3.org/2000/svg"><rect fill="#cbcdd6" height="56" rx="4" width="56"/><path d="m34.6134 23.8936v-2.28c0-3.48-2.5467-6.5867-6.0134-6.92-3.9733-.3734-7.32 2.7333-7.32 6.64v2.56h-1.3333c-1.4667 0-2.6667 1.2-2.6667 2.6666v12.0934c0 1.4666 1.2 2.6666 2.6667 2.6666h16c1.4667 0 2.6667-1.2 2.6667-2.6666v-12.0934c0-1.4666-1.2-2.6666-2.6667-2.6666zm-6.6534 10.7733c-1.4666 0-2.6666-1.2-2.6666-2.6667s1.2-2.6667 2.6666-2.6667c1.4667 0 2.6667 1.2 2.6667 2.6667s-1.2 2.6667-2.6667 2.6667zm3.9734-10.7733h-8v-2.4c0-1.9334 1.3066-3.7067 3.2-4.08 2.56-.4934 4.8 1.4533 4.8 3.92z" fill="#252a2e"/></svg>

<svg width="56" height="56" viewBox="0 0 56 56" fill="none" xmlns="http://www.w3.org/2000/svg">
<rect width="56" height="56" rx="4" fill="#CBCDD6"/>
<path d="M34.6134 23.8936V21.6136C34.6134 18.1336 32.0667 15.0269 28.6 14.6936C24.6267 14.3202 21.28 17.4269 21.28 21.3336V23.8936H19.9467C18.48 23.8936 17.28 25.0936 17.28 26.5602V38.6536C17.28 40.1202 18.48 41.3202 19.9467 41.3202H35.9467C37.4134 41.3202 38.6134 40.1202 38.6134 38.6536V26.5602C38.6134 25.0936 37.4134 23.8936 35.9467 23.8936H34.6134ZM27.96 34.6669C26.4934 34.6669 25.2934 33.4669 25.2934 32.0002C25.2934 30.5335 26.4934 29.3335 27.96 29.3335C29.4267 29.3335 30.6267 30.5335 30.6267 32.0002C30.6267 33.4669 29.4267 34.6669 27.96 34.6669ZM31.9334 23.8936H23.9334V21.4936C23.9334 19.5602 25.24 17.7869 27.1334 17.4136C29.6934 16.9202 31.9334 18.8669 31.9334 21.3336V23.8936Z" fill="#252A2E"/>
</svg>
